X: 09036
T: EVELYN'S WALTZ
C: Bob McQuillen 1 Mar 93
B: Bob's Note Book 9 #36
R: waltz
Z: 2019 John Chambers <jc:trillian.mit.edu>
M: 3/4
L: 1/8
K: C
C2 A,2 \
| "C"G,2 C3 D | "C"E2 C2 E2 | "F6"D3 E DC | "F6"A,4 C2 | "G7"B,2 A,2 G,2 | "G7"B3 A G2 | "C"A2 G3 E | "G7"C2 E2 C2 |
| "C"G,2 C3 D | "C"E2 C2 E2 | "F6"D3 E DC | "F6"A,2 D2 C2 | "G7"B,2 A,2 G,2 | "G7"E4 D2 | "C"C6- | C2 :|
|: E2 G2 \
| "C"c2 G3 E | "C"C2E2 G2 | "F"c A3 F | "F6"A4 c2 | "G7"B2 G3 A | "G7"B2 c2 d2 | "F6"f2 e3 d | "G7"e2 g2 f2 |
| "C"e2 c3 A | "C"G2 E2 G2 | "F"A2 F3 G | "F6"A2 d2 c2 | "G7"B2 A2 B2 | "G7"G4 d2 | "C"c6- | c2 :|
%%begintext align
%% Evelyn Bannerman comes
%% to the Ralph Page Weekend each year with her nice
%% husband, Glenn, and so I thought probably she ought
%% to have a waltz of her own for her and him to dance to.
%% She's at least as nice as he is, so I think this is a
%% pretty good idea. Don't you think so, too? Say "YES"!
%%endtext

%%sep 1 1 500

%%sep 1 1 500

